assets/i18n/b-jp-dk.svg

<?xml version="1.0" encoding="UTF-8"?>
<svg width="144px" height="24px" viewBox="0 0 144 24" version="1.1" xmlns="http://www.w3.org/2000/svg" xmlns:xlink="http://www.w3.org/1999/xlink">
    <!-- Generator: Sketch 51.3 (57544) - http://www.bohemiancoding.com/sketch -->
    <title>SwG-JP Copy-Black</title>
    <desc>Created with Sketch.</desc>
    <defs></defs>
    <g id="SwG-JP-Copy" stroke="none" stroke-width="1" fill="none" fill-rule="evenodd">
        <path d="M94.144375,6.959 C95.156375,7.948 95.984375,8.983 96.628375,10.041 L95.639375,10.754 C94.949375,9.604 94.144375,8.569 93.247375,7.672 L94.144375,6.959 Z M91.936375,8.5 C92.925375,9.466 93.753375,10.501 94.420375,11.628 L93.431375,12.318 C92.741375,11.168 91.936375,10.156 91.016375,9.236 L91.936375,8.5 Z M95.846375,3.67 L95.892375,5.211 L91.752375,5.395 C91.062375,5.395 90.165375,5.809 89.107375,6.637 C87.957375,7.511 86.991375,8.546 86.232375,9.742 C85.335375,11.122 84.898375,12.525 84.898375,13.928 C84.898375,15.538 85.588375,16.826 86.991375,17.769 C88.486375,18.735 90.671375,19.264 93.569375,19.356 L93.247375,20.943 C89.889375,20.897 87.336375,20.253 85.611375,19.011 C83.955375,17.838 83.127375,16.182 83.127375,14.043 C83.127375,12.203 83.725375,10.455 84.944375,8.845 C85.933375,7.465 87.198375,6.338 88.762375,5.464 C85.358375,5.74 81.632375,6.062 77.630375,6.476 L77.400375,4.843 C84.760375,4.13 90.901375,3.739 95.846375,3.67 Z M100.199125,2.083 L106.432125,2.083 L106.432125,16.044 L100.199125,16.044 L100.199125,2.083 Z M104.937125,14.664 L104.937125,11.651 L101.694125,11.651 L101.694125,14.664 L104.937125,14.664 Z M101.694125,10.294 L104.937125,10.294 L104.937125,7.465 L101.694125,7.465 L101.694125,10.294 Z M101.694125,6.131 L104.937125,6.131 L104.937125,3.463 L101.694125,3.463 L101.694125,6.131 Z M104.960125,16.803 C105.972125,18.321 106.731125,19.678 107.283125,20.851 L106.087125,21.679 C105.535125,20.414 104.753125,19.034 103.787125,17.516 L104.960125,16.803 Z M101.510125,16.849 L102.775125,17.447 C102.223125,19.011 101.487125,20.529 100.567125,22.024 L99.279125,21.357 C100.222125,19.839 100.958125,18.344 101.510125,16.849 Z M110.526125,1.14 L112.021125,1.14 L112.021125,2.888 L115.609125,2.888 L115.609125,1.14 L117.127125,1.14 L117.127125,2.888 L119.887125,2.888 L119.887125,4.199 L117.127125,4.199 L117.127125,5.786 L119.473125,5.786 L119.473125,7.051 L117.127125,7.051 L117.127125,8.638 L120.347125,8.638 L120.347125,9.949 L114.528125,9.949 L114.528125,11.421 L119.174125,11.421 L119.174125,17.217 L120.416125,17.217 L120.416125,18.574 L119.174125,18.574 L119.174125,20.529 C119.174125,21.633 118.553125,22.208 117.311125,22.208 L115.448125,22.208 L115.080125,20.851 L116.851125,20.897 C117.380125,20.897 117.656125,20.644 117.656125,20.184 L117.656125,18.574 L109.928125,18.574 L109.928125,22.231 L108.410125,22.231 L108.410125,18.574 L107.053125,18.574 L107.053125,17.217 L108.410125,17.217 L108.410125,11.421 L113.010125,11.421 L113.010125,9.949 L107.283125,9.949 L107.283125,8.638 L110.526125,8.638 L110.526125,7.051 L108.180125,7.051 L108.180125,5.786 L110.526125,5.786 L110.526125,4.199 L107.743125,4.199 L107.743125,2.888 L110.526125,2.888 L110.526125,1.14 Z M109.928125,17.217 L113.010125,17.217 L113.010125,15.492 L109.928125,15.492 L109.928125,17.217 Z M114.528125,17.217 L117.656125,17.217 L117.656125,15.492 L114.528125,15.492 L114.528125,17.217 Z M112.021125,8.638 L115.609125,8.638 L115.609125,7.051 L112.021125,7.051 L112.021125,8.638 Z M112.021125,5.786 L115.609125,5.786 L115.609125,4.199 L112.021125,4.199 L112.021125,5.786 Z M117.656125,14.342 L117.656125,12.663 L114.528125,12.663 L114.528125,14.342 L117.656125,14.342 Z M113.010125,12.663 L109.928125,12.663 L109.928125,14.342 L113.010125,14.342 L113.010125,12.663 Z M130.702875,3.348 L135.808875,3.348 L135.808875,1.209 L137.441875,1.209 L137.441875,3.348 L142.570875,3.348 L142.570875,4.82 L137.441875,4.82 L137.441875,6.867 L141.811875,6.867 L141.811875,8.339 L131.530875,8.339 L131.530875,6.867 L135.808875,6.867 L135.808875,4.82 L130.702875,4.82 L130.702875,3.348 Z M142.823875,10.018 L142.823875,13.79 L141.328875,13.79 L141.328875,11.444 L132.036875,11.444 L132.036875,13.79 L130.541875,13.79 L130.541875,10.018 L142.823875,10.018 Z M133.876875,13.215 L135.348875,13.215 C135.348875,15.124 135.118875,16.734 134.658875,18.068 C134.060875,19.816 132.703875,21.242 130.587875,22.346 L129.552875,21.081 C131.369875,20.161 132.588875,19.011 133.186875,17.654 C133.646875,16.481 133.876875,15.009 133.876875,13.215 Z M141.374875,21.955 L139.212875,21.955 C138.660875,21.955 138.246875,21.771 137.970875,21.449 C137.694875,21.104 137.556875,20.667 137.556875,20.138 L137.556875,13.215 L139.028875,13.215 L139.028875,19.839 C139.028875,20.322 139.235875,20.575 139.695875,20.575 L141.075875,20.575 C141.328875,20.575 141.535875,20.506 141.673875,20.368 C141.880875,20.161 142.018875,19.172 142.087875,17.401 L143.536875,17.884 C143.375875,19.862 143.145875,21.035 142.869875,21.426 C142.570875,21.748 142.064875,21.932 141.374875,21.955 Z M122.652875,4.268 L125.803875,4.268 C125.481875,3.325 125.090875,2.428 124.630875,1.577 L126.217875,1.14 C126.677875,2.152 127.022875,3.095 127.298875,3.923 L126.378875,4.268 L129.805875,4.268 L129.805875,5.74 L122.652875,5.74 L122.652875,4.268 Z M123.480875,7.603 L129.138875,7.603 L129.138875,8.983 L123.480875,8.983 L123.480875,7.603 Z M123.480875,10.8 L129.138875,10.8 L129.138875,12.18 L123.480875,12.18 L123.480875,10.8 Z M129.322875,14.204 L129.322875,20.782 L124.791875,20.782 L124.791875,21.955 L123.296875,21.955 L123.296875,14.204 L129.322875,14.204 Z M124.791875,19.379 L127.850875,19.379 L127.850875,15.561 L124.791875,15.561 L124.791875,19.379 Z" id="で購読" fill="#FFFFFF"></path>
        <g id="Group" fill="#FFFFFF" fill-rule="nonzero">
            <path d="M9.36714443,19 C4.27673649,19 0,14.7346939 0,9.5 C0,4.26530612 4.27673649,0 9.36714443,0 C12.185226,0 14.1896362,1.13265306 15.6979052,2.62244898 L13.92172,4.44897959 C12.8401323,3.40816327 11.3715546,2.59183673 9.36714443,2.59183673 C5.646086,2.59183673 2.73869901,5.67346939 2.73869901,9.5 C2.73869901,13.3265306 5.646086,16.4081633 9.36714443,16.4081633 C11.7783903,16.4081633 13.1477398,15.4081633 14.030871,14.5102041 C14.755237,13.7653061 15.2216097,12.7040816 15.4002205,11.244898 L9.36714443,11.244898 L9.36714443,8.64285714 L17.8610805,8.64285714 C17.9503859,9.10204082 18,9.66326531 18,10.2653061 C18,12.2142857 17.4840132,14.622449 15.8169791,16.3367347 C14.1896362,18.0714286 12.1256891,19 9.36714443,19 Z" id="Shape"></path>
            <path d="M32,13 C32,16.4557596 29.3096447,19 26,19 C22.6903553,19 20,16.4557596 20,13 C20,9.52420701 22.6903553,7 26,7 C29.3096447,7 32,9.52420701 32,13 Z M29.3705584,13 C29.3705584,10.836394 27.8071066,9.3639399 26,9.3639399 C24.1928934,9.3639399 22.6294416,10.8464107 22.6294416,13 C22.6294416,15.1335559 24.1928934,16.6360601 26,16.6360601 C27.8071066,16.6360601 29.3705584,15.1435726 29.3705584,13 Z" id="Shape"></path>
            <path d="M45,13 C45,16.4557596 42.3096447,19 39,19 C35.7005076,19 33,16.4557596 33,13 C33,9.52420701 35.6903553,7 39,7 C42.3096447,7 45,9.52420701 45,13 Z M42.3807107,13 C42.3807107,10.836394 40.8172589,9.3639399 39.0101523,9.3639399 C37.2030457,9.3639399 35.6395939,10.8464107 35.6395939,13 C35.6395939,15.1335559 37.2030457,16.6360601 39.0101523,16.6360601 C40.8172589,16.6460768 42.3807107,15.1435726 42.3807107,13 Z" id="Shape"></path>
            <path d="M57,7.3621186 L57,17.8929188 C57,22.228555 54.5013055,24 51.5430809,24 C48.7571802,24 47.0913838,22.0915371 46.45953,20.5354059 L48.6518712,19.6056419 C49.0443864,20.5647668 50.0017406,21.6902706 51.5430809,21.6902706 C53.4386423,21.6902706 54.6066144,20.4864709 54.6066144,18.2452504 L54.6066144,17.4035694 L54.5204526,17.4035694 C53.9556136,18.1180196 52.8642298,18.7345999 51.4952132,18.7345999 C48.6231506,18.7345999 46,16.1801957 46,12.8917674 C46,9.58376511 48.6327241,7 51.4952132,7 C52.8642298,7 53.9556136,7.6263673 54.5204526,8.31145653 L54.6066144,8.31145653 L54.6066144,7.3621186 L57,7.3621186 Z M54.7789382,12.9015544 C54.7789382,10.8364997 53.4290688,9.31951641 51.7154047,9.31951641 C49.97302,9.31951641 48.5178416,10.8267127 48.5178416,12.9015544 C48.5178416,14.9470351 49.97302,16.4346575 51.7154047,16.4346575 C53.4290688,16.4346575 54.7789382,14.9470351 54.7789382,12.9015544 Z" id="Shape"></path>
            <polygon id="Shape" points="63 1 63 19 60 19 60 1"></polygon>
            <path d="M72.8441203,14.9732888 L74.8896992,16.3355593 C74.2278943,17.3171953 72.633546,19 69.8760255,19 C66.4567001,19 64,16.3656093 64,13 C64,9.43405676 66.4867821,7 69.5852325,7 C72.7037375,7 74.2278943,9.47412354 74.7292616,10.8163606 L75,11.4974958 L66.9680948,14.8230384 C67.579763,16.0250417 68.5423883,16.6460768 69.8860529,16.6460768 C71.2297174,16.6460768 72.1622607,15.9749583 72.8441203,14.9732888 Z M66.5369189,12.8096828 L71.911577,10.5859766 C71.6107566,9.83472454 70.72835,9.31385643 69.6754786,9.31385643 C68.331814,9.31385643 66.4667274,10.4958264 66.5369189,12.8096828 Z" id="Shape"></path>
        </g>
    </g>
</svg>

<svg width="144" height="24" viewBox="0 0 144 24" xmlns="http://www.w3.org/2000/svg"><title>SwG-JP-Black</title><desc>Created with Sketch.</desc><g fill="none"><path d="M94.144 6.959c1.012.989 1.84 2.024 2.484 3.082l-.989.713c-.69-1.15-1.495-2.185-2.392-3.082l.897-.713zm-2.208 1.541c.989.966 1.817 2.001 2.484 3.128l-.989.69c-.69-1.15-1.495-2.162-2.415-3.082l.92-.736zm3.91-4.83l.046 1.541-4.14.184c-.69 0-1.587.414-2.645 1.242-1.15.874-2.116 1.909-2.875 3.105-.897 1.38-1.334 2.783-1.334 4.186 0 1.61.69 2.898 2.093 3.841 1.495.966 3.68 1.495 6.578 1.587l-.322 1.587c-3.358-.046-5.911-.69-7.636-1.932-1.656-1.173-2.484-2.829-2.484-4.968 0-1.84.598-3.588 1.817-5.198.989-1.38 2.254-2.507 3.818-3.381-3.404.276-7.13.598-11.132 1.012l-.23-1.633c7.36-.713 13.501-1.104 18.446-1.173zm4.353-1.587h6.233v13.961h-6.233v-13.961zm4.738 12.581v-3.013h-3.243v3.013h3.243zm-3.243-4.37h3.243v-2.829h-3.243v2.829zm0-4.163h3.243v-2.668h-3.243v2.668zm3.266 10.672c1.012 1.518 1.771 2.875 2.323 4.048l-1.196.828c-.552-1.265-1.334-2.645-2.3-4.163l1.173-.713zm-3.45.046l1.265.598c-.552 1.564-1.288 3.082-2.208 4.577l-1.288-.667c.943-1.518 1.679-3.013 2.231-4.508zm9.016-15.709h1.495v1.748h3.588v-1.748h1.518v1.748h2.76v1.311h-2.76v1.587h2.346v1.265h-2.346v1.587h3.22v1.311h-5.819v1.472h4.646v5.796h1.242v1.357h-1.242v1.955c0 1.104-.621 1.679-1.863 1.679h-1.863l-.368-1.357 1.771.046c.529 0 .805-.253.805-.713v-1.61h-7.728v3.657h-1.518v-3.657h-1.357v-1.357h1.357v-5.796h4.6v-1.472h-5.727v-1.311h3.243v-1.587h-2.346v-1.265h2.346v-1.587h-2.783v-1.311h2.783v-1.748zm-.598 16.077h3.082v-1.725h-3.082v1.725zm4.6 0h3.128v-1.725h-3.128v1.725zm-2.507-8.579h3.588v-1.587h-3.588v1.587zm0-2.852h3.588v-1.587h-3.588v1.587zm5.635 8.556v-1.679h-3.128v1.679h3.128zm-4.646-1.679h-3.082v1.679h3.082v-1.679zm17.693-9.315h5.106v-2.139h1.633v2.139h5.129v1.472h-5.129v2.047h4.37v1.472h-10.281v-1.472h4.278v-2.047h-5.106v-1.472zm12.121 6.67v3.772h-1.495v-2.346h-9.292v2.346h-1.495v-3.772h12.282zm-8.947 3.197h1.472c0 1.909-.23 3.519-.69 4.853-.598 1.748-1.955 3.174-4.071 4.278l-1.035-1.265c1.817-.92 3.036-2.07 3.634-3.427.46-1.173.69-2.645.69-4.439zm7.498 8.74h-2.162c-.552 0-.966-.184-1.242-.506-.276-.345-.414-.782-.414-1.311v-6.923h1.472v6.624c0 .483.207.736.667.736h1.38c.253 0 .46-.069.598-.207.207-.207.345-1.196.414-2.967l1.449.483c-.161 1.978-.391 3.151-.667 3.542-.299.322-.805.506-1.495.529zm-18.722-17.687h3.151c-.322-.943-.713-1.84-1.173-2.691l1.587-.437c.46 1.012.805 1.955 1.081 2.783l-.92.345h3.427v1.472h-7.153v-1.472zm.828 3.335h5.658v1.38h-5.658v-1.38zm0 3.197h5.658v1.38h-5.658v-1.38zm5.842 3.404v6.578h-4.531v1.173h-1.495v-7.751h6.026zm-4.531 5.175h3.059v-3.818h-3.059v3.818z" fill="#fff"/><g fill-rule="nonzero"><path d="M9.367 19c-5.09 0-9.367-4.265-9.367-9.5s4.277-9.5 9.367-9.5c2.818 0 4.822 1.133 6.331 2.622l-1.776 1.827c-1.082-1.041-2.55-1.857-4.555-1.857-3.721 0-6.628 3.082-6.628 6.908 0 3.827 2.907 6.908 6.628 6.908 2.411 0 3.781-1 4.664-1.898.724-.745 1.191-1.806 1.369-3.265h-6.033v-2.602h8.494c.089.459.139 1.02.139 1.622 0 1.949-.516 4.357-2.183 6.071-1.627 1.735-3.691 2.663-6.45 2.663z" id="Shape" fill="#4285F4"/><path d="M32 13c0 3.456-2.69 6-6 6s-6-2.544-6-6c0-3.476 2.69-6 6-6s6 2.524 6 6zm-2.629 0c0-2.164-1.563-3.636-3.371-3.636-1.807 0-3.371 1.482-3.371 3.636 0 2.134 1.563 3.636 3.371 3.636 1.807 0 3.371-1.492 3.371-3.636z" id="Shape" fill="#E94235"/><path d="M45 13c0 3.456-2.69 6-6 6-3.299 0-6-2.544-6-6 0-3.476 2.69-6 6-6s6 2.524 6 6zm-2.619 0c0-2.164-1.563-3.636-3.371-3.636-1.807 0-3.371 1.482-3.371 3.636 0 2.134 1.563 3.636 3.371 3.636 1.807.01 3.371-1.492 3.371-3.636z" id="Shape" fill="#FABB05"/><path d="M57 7.362v10.531c0 4.336-2.499 6.107-5.457 6.107-2.786 0-4.452-1.908-5.084-3.465l2.192-.93c.393.959 1.35 2.085 2.891 2.085 1.896 0 3.064-1.204 3.064-3.445v-.842h-.086c-.565.714-1.656 1.331-3.025 1.331-2.872 0-5.495-2.554-5.495-5.843 0-3.308 2.633-5.892 5.495-5.892 1.369 0 2.46.626 3.025 1.311h.086v-.949h2.393zm-2.221 5.539c0-2.065-1.35-3.582-3.064-3.582-1.742 0-3.198 1.507-3.198 3.582 0 2.045 1.455 3.533 3.198 3.533 1.714 0 3.064-1.488 3.064-3.533z" id="Shape" fill="#4285F4"/><path id="Shape" fill="#34A853" d="M63 1v18h-3v-18z"/><path d="M72.844 14.973l2.046 1.362c-.662.982-2.256 2.664-5.014 2.664-3.419 0-5.876-2.634-5.876-6 0-3.566 2.487-6 5.585-6 3.119 0 4.643 2.474 5.144 3.816l.271.681-8.032 3.326c.612 1.202 1.574 1.823 2.918 1.823s2.276-.671 2.958-1.673zm-6.307-2.164l5.375-2.224c-.301-.751-1.183-1.272-2.236-1.272-1.344 0-3.209 1.182-3.139 3.496z" fill="#E94235"/></g></g></svg>
